!!!!SEGMENT: pl-sa--70-a-ii-10--012_pergolesi-giovanni-battista--stabat-mater-quando-corpus-amen.krn
!!!cenid: 17xx:654
!!!COM: Pergolesi, Giovanni Battista
!!!COM-rismID: pe30002483
!!!CDT: 1710/01/04-1736/03
!!!CNT: Italian
!!!OPR: Stabat Mater
!!!OTL: Quando corpus-Amen
!!!OMV: 012
!!!PDT:
!!!AGN: Sacred
!!!SMS-siglum: PL-SA
!!!SMS-shelfmark: 70/A II 10
!!!SMS-shelfwork: 001-012 M
!!!SMS-variant:
!!!SMS-altvar:
!!!NIFC-rismSourceID: 1001030091
!!!NIFC-islandoraID:
!!!URL-pdf-islandora:
!!!URL-scan: https://bc.bdsandomierz.pl/dlibra/publication/1341/edition/1309/content @EN{Scan in the Sandomierz Diocese Digital Library} @PL{Skany w portalu Cyfrowa Biblioteka Diecezjalna w Sandomierzu}
!!!ONB-nifc: UWAGA: części Stabat Mater: Stabat Mater, Cuius animam, O quam tristis, Quae moerebat, Quist est homo+Pro peccatis, Vidit suum, Eja mater, Fac ut ardeat, Sancta Mater, Fac ut portem, Inflammatus, Quando corpus+Amen
!!!AIN: 1 alto 1 organ 1 viola 2 violn 1 vox
!!!key:
**kern	**fba	**kern	**dynam	**kern	**kern	**dynam	**kern	**text	**kern	**text
*part6	*	*part5	*part5	*part4	*part3	*part3	*part2	*part2	*part1	*part1
*	*	*group2	*	*group2	*group2	*	*group1	*	*group1	*
*staff6	*	*staff5	*	*staff4	*staff3	*	*staff2	*staff2	*staff1	*staff1
*Iorgan	*	*Iviola	*	*Ivioln	*Ivioln	*	*Ialto	*	*Ivox	*
*I"ORGANO	*	*I"Alto Viola	*	*I"Violino 2do.	*I"Violino 1mo	*	*I"Alto	*	*I"Canto	*
*I'org	*	*I'a-vla	*	*I'vl 2	*I'vl 1	*	*I'A	*	*I'S	*
*clefF4	*	*clefC3	*	*clefG2	*clefG2	*	*clefC3	*	*clefC1	*
*k[e-b-a-]	*	*k[e-b-a-]	*	*k[e-b-a-]	*k[e-b-a-]	*	*k[e-b-a-]	*	*k[e-b-a-]	*
*f:dor	*	*f:dor	*	*f:dor	*f:dor	*	*f:dor	*	*f:dor	*
*M4/4	*	*M4/4	*	*M4/4	*M4/4	*	*M4/4	*	*M4/4	*
*met(c)	*	*met(c)	*	*met(c)	*met(c)	*	*met(c)	*	*met(c)	*
=1	=1	=1	=1	=1	=1	=1	=1	=1	=1	=1
!LO:TX:a:t=P:problem=w b.c. mnóstwo błędów, czasami nie zgadza się z resztą głosów	!	!	!	!	!	!	!	!	!	!
!LO:TX:a:t=P:problem=bemole E- C- AA-	!	!LO:TX:a:t=P:problem=bemole f- c- A-	!	!	!	!	!	!	!	!
!LO:TX:b:i:t=Quando Corpus	!	!LO:TX:a:i:t=Largo	!	!LO:TX:b:i:t=Quando Corpus	!LO:TX:a:i:t=Largo	!	!LO:TX:a:t=Largo	!	!LO:TX:a:t=P:problem=bemole ee- b- a-	!
!LO:TX:a:i:t=Largo	!	!LO:TX:b:i:t=Quando Corpus	!	!LO:TX:a:i:t=Larghetto	!LO:TX:b:i:t=Quando Corpus	!	!LO:TX:a:t=7	!	!	!
8F\	.	8f\	.	16r	4.cc\	.	00r	.	00r	.
.	.	.	.	16cc/LL	.	.	.	.	.	.
8r	.	8r	.	16a-/	.	.	.	.	.	.
.	.	.	.	16f/JJ	.	.	.	.	.	.
8F\	.	8f\	.	16r	.	.	.	.	.	.
.	.	.	.	16cc/LL	.	.	.	.	.	.
8r	.	8r	.	16a-/	8ff\	.	.	.	.	.
.	.	.	.	16f/JJ	.	.	.	.	.	.
8C/	6 4	8c\	.	16r	4ff\	.	.	.	.	.
.	.	.	.	16a-/LL	.	.	.	.	.	.
8r	.	8r	.	16f/	.	.	.	.	.	.
.	.	.	.	16c/JJ	.	.	.	.	.	.
8C/	5 n3	8c\	.	16r	4een\	.	.	.	.	.
.	.	.	.	16g/LL	.	.	.	.	.	.
8r	.	8r	.	16en/	.	.	.	.	.	.
.	.	.	.	16c/JJ	.	.	.	.	.	.
=2	=2	=2	=2	=2	=2	=2	=2	=2	=2	=2
!	!	!	!	!	!LO:SIC:v:s=4.gg	!	!	!	!	!
8En\	6 5	8en\	.	16r	4.aa-\	.	.	.	.	.
.	.	.	.	16b-/LL	.	.	.	.	.	.
8r	.	8r	.	16g/	.	.	.	.	.	.
.	.	.	.	16en/JJ	.	.	.	.	.	.
8E\	.	8e\	.	16r	.	.	.	.	.	.
.	.	.	.	16g/LL	.	.	.	.	.	.
8r	.	8r	.	16en/	8b-/	.	.	.	.	.
.	.	.	.	16c/JJ	.	.	.	.	.	.
8F\	6 4	8f\	.	16r	4b-/	.	.	.	.	.
.	.	.	.	16b-/LL	.	.	.	.	.	.
8r	.	8r	.	16g/	.	.	.	.	.	.
.	.	.	.	16en/JJ	.	.	.	.	.	.
8F\	5 3	8f\	.	16r	4a-/	.	.	.	.	.
.	.	.	.	16cc/LL	.	.	.	.	.	.
8r	.	8r	.	16a-/	.	.	.	.	.	.
.	.	.	.	16f/JJ	.	.	.	.	.	.
=3	=3	=3	=3	=3	=3	=3	=3	=3	=3	=3
8BBn/	7	8Bn/	.	16r	4.ff\	.	.	.	.	.
.	.	.	.	16a-/LL	.	.	.	.	.	.
8r	.	8r	.	16f/	.	.	.	.	.	.
.	.	.	.	16d/JJ	.	.	.	.	.	.
8BB/	.	8B/	.	16r	.	.	.	.	.	.
.	.	.	.	16a-/LL	.	.	.	.	.	.
8r	.	8r	.	16f/	8a-/	.	.	.	.	.
.	.	.	.	16d/JJ	.	.	.	.	.	.
8C/	6 4	8c/	.	16r	4a-/	.	.	.	.	.
.	.	.	.	16a-/LL	.	.	.	.	.	.
8r	.	8r	.	16f/	.	.	.	.	.	.
.	.	.	.	16c/JJ	.	.	.	.	.	.
8c\	5 n	8cc\	.	16r	4g/	.	.	.	.	.
.	.	.	.	16g/LL	.	.	.	.	.	.
8r	.	8r	.	16en/	.	.	.	.	.	.
.	.	.	.	16c/JJ	.	.	.	.	.	.
!	!	!	!	!LO:LB:g=original	!	!	!	!	!	!
=4	=4	=4	=4	=4	=4	=4	=4	=4	=4	=4
8c\	2	8cc\	.	16r	4.dd-X\	.	.	.	.	.
.	.	.	.	16f/LL	.	.	.	.	.	.
8r	.	8r	.	16en/	.	.	.	.	.	.
.	.	.	.	16f/JJ	.	.	.	.	.	.
8c\	n	8cc\	.	16r	.	.	.	.	.	.
.	.	.	.	16dd-X\LL	.	.	.	.	.	.
8r	.	8r	.	16b-\	8een\	.	.	.	.	.
.	.	.	.	16g\JJ	.	.	.	.	.	.
8A-\	6	8a-\	.	16r	4.ff\	.	.	.	.	.
.	.	.	.	16cc/LL	.	.	.	.	.	.
8r	.	8r	.	16a-/	.	.	.	.	.	.
.	.	.	.	16f/JJ	.	.	.	.	.	.
8B-\	-	8b-\	.	16r	.	.	.	.	.	.
.	.	.	.	16dd-X/LL	.	.	.	.	.	.
8r	.	8r	.	16b-/	8dd-X\	.	.	.	.	.
.	.	.	.	16g/JJ	.	.	.	.	.	.
=5	=5	=5	=5	=5	=5	=5	=5	=5	=5	=5
8c\	6 4	8cc\	.	16r	4.cc\	.	0r	.	0r	.
.	.	.	.	16cc/LL	.	.	.	.	.	.
8r	.	8r	.	16a-/	.	.	.	.	.	.
.	.	.	.	16f/JJ	.	.	.	.	.	.
8C/	7	8c/	.	16r	.	.	.	.	.	.
.	.	.	.	16b-/LL	.	.	.	.	.	.
8r	.	8r	.	16g/	8en/	.	.	.	.	.
.	.	.	.	16en/JJ	.	.	.	.	.	.
!LO:LB:g=original	!	!	!	!	!	!	!	!	!	!
8D-X\	6\	8d-X\	.	16r	2f/	.	.	.	.	.
.	.	.	.	16a-/LL	.	.	.	.	.	.
8r	.	8r	.	16en/	.	.	.	.	.	.
.	.	.	.	16f/JJ	.	.	.	.	.	.
8D-\	.	8d-\	.	16r	.	.	.	.	.	.
.	.	.	.	16a-/LL	.	.	.	.	.	.
8r	.	8r	.	16en/	.	.	.	.	.	.
.	.	.	.	16f/JJ	.	.	.	.	.	.
=6	=6	=6	=6	=6	=6	=6	=6	=6	=6	=6
8B-\	-	8b-\	.	16r	4.dd-X\	.	.	.	.	.
.	.	.	.	16dd-X/LL	.	.	.	.	.	.
8r	.	8r	.	16b-/	.	.	.	.	.	.
.	.	.	.	16g/JJ	.	.	.	.	.	.
8G\	n6	8g\	.	16r	.	.	.	.	.	.
.	.	.	.	16b-/LL	.	.	.	.	.	.
8r	.	8r	.	16g/	8een\	.	.	.	.	.
.	.	.	.	16en/JJ	.	.	.	.	.	.
.	.	.	.	.	8qqee/	.	.	.	.	.
8A-\	6	8a-\	.	16r	4.ff\	.	.	.	.	.
.	.	.	.	16cc/LL	.	.	.	.	.	.
8r	.	8r	.	16a-/	.	.	.	.	.	.
.	.	.	.	16f/JJ	.	.	.	.	.	.
8B-\	-	8b-\	.	16r	.	.	.	.	.	.
.	.	.	.	16dd-X/LL	.	.	.	.	.	.
8r	.	8r	.	16b-/	8dd-X\	.	.	.	.	.
.	.	.	.	16g/JJ	.	.	.	.	.	.
=7	=7	=7	=7	=7	=7	=7	=7	=7	=7	=7
8c\	6 4	8cc\	.	16r	4.cc\	.	1r	.	1r	.
.	.	.	.	16cc/LL	.	.	.	.	.	.
8r	.	8r	.	16a-/	.	.	.	.	.	.
.	.	.	.	16f/JJ	.	.	.	.	.	.
!	!	!LO:LB:g=original	!	!	!	!	!	!	!	!
8C/	.	8c/	.	16r	.	.	.	.	.	.
.	.	.	.	16b-/LL	.	.	.	.	.	.
8r	.	8r	.	16g/	8en/	.	.	.	.	.
.	.	.	.	16en/JJ	.	.	.	.	.	.
8FF/	.	8F/	.	16r	2f/	.	.	.	.	.
.	.	.	.	16a-/LL	.	.	.	.	.	.
8ryy	.	8r	.	16f/	.	.	.	.	.	.
.	.	.	.	16c/JJ	.	.	.	.	.	.
8FF/	.	8F/	.	16r	.	.	.	.	.	.
.	.	.	.	16f/LL	.	.	.	.	.	.
8r	.	8r	.	16c/	.	.	.	.	.	.
!	!	!	!	!	!LO:TX:a:t=P:problem=po tym takcie 2 wykreślone takty	!	!	!	!	!
.	.	.	.	16A-/JJ	.	.	.	.	.	.
!	!	!	!	!	!LO:LB:g=original	!	!	!	!	!
=8	=8	=8	=8	=8	=8	=8	=8	=8	=8	=8
!	!	!	!LO:DY:b	!	!	!	!	!	!	!
8F\	.	8f\	p	16r	16r	.	2r	.	4cc\	Quan-
.	.	.	.	16cc/LL	(16cc/LL	.	.	.	.	.
8r	.	8r	.	16a-/	16a-/	.	.	.	.	.
.	.	.	.	16f/JJ	16f/JJ)	.	.	.	.	.
8F\	.	8f\	.	16r	16r	.	.	.	4ff\	-do
!	!	!	!	!LO:TX:a:t=P:problem=sześć nut poprawianych	!	!	!	!	!	!
.	.	.	.	16cc/LL	(16cc/LL	.	.	.	.	.
!	!	!	!	!LO:SIC:v:s=16g	!	!	!	!	!	!
8r	.	8r	.	16g/	16a-/	.	.	.	.	.
!	!	!	!	!LO:SIC:v:s=16en	!	!	!	!	!	!
.	.	.	.	16en/JJ	16f/JJ)	.	.	.	.	.
8C/	n	8c\	.	16r	16r	.	4g\	Quan-	4ff\	Cor-
.	.	.	.	16cc/LL	(16cc/LL	.	.	.	.	.
8r	.	8r	.	16g/	16g/	.	.	.	.	.
.	.	.	.	16e/JJ	16en/JJ)	.	.	.	.	.
8C/	.	8c\	.	16r	16r	.	4b-\	-do	4een\	-pus
.	.	.	.	16b-/LL	(16cc/LL	.	.	.	.	.
8r	.	8r	.	16g/	16g/	.	.	.	.	.
.	.	.	.	16e/JJ	16en/JJ)	.	.	.	.	.
!	!	!	!	!LO:LB:g=original	!	!	!	!	!	!
=9	=9	=9	=9	=9	=9	=9	=9	=9	=9	=9
8F\	.	8f\	.	16r	16r	.	4b-\	Cor-	2r	.
.	.	.	.	16b-/LL	(16b-/LL	.	.	.	.	.
8r	.	8r	.	16g/	16g/	.	.	.	.	.
.	.	.	.	16en/JJ	16en/JJ)	.	.	.	.	.
8F\	.	8f\	.	16r	16r	.	4a-\	-pus	.	.
!	!	!	!	!LO:SIC:v:s=16cc	!	!	!	!	!	!
.	.	.	.	16b-/LL	(16cc/LL	.	.	.	.	.
!	!	!	!	!LO:SIC:v:s=16a-	!	!	!	!	!	!
8r	.	8r	.	16g/	16a-/	.	.	.	.	.
!	!	!	!	!LO:SIC:v:s=16f	!	!	!	!	!	!
.	.	.	.	16en/JJ	16f/JJ)	.	.	.	.	.
8BBn/	7	8Bn/	.	16r	16r	.	4a-\	mo-	4ff\	mo-
.	.	.	.	16a-/LL	(16a-/LL	.	.	.	.	.
8r	.	8r	.	16f/	16f/	.	.	.	.	.
.	.	.	.	16d/JJ	16d/JJ)	.	.	.	.	.
8BB/	.	8B/	.	16r	16r	.	4f\	-ri-	4a-\	-ri-
.	.	.	.	16a-/LL	(16a-/LL	.	.	.	.	.
8r	.	8r	.	16f/	16f/	.	.	.	.	.
.	.	.	.	16d/JJ	16d/JJ)	.	.	.	.	.
=10	=10	=10	=10	=10	=10	=10	=10	=10	=10	=10
!	!	!	!	!	!	!	!	!	!LO:SIC:v:l:s=-e-	!
8C/	6 4	8c\	.	16r	16r	.	4f\	-e-	4a-\	-en-
.	.	.	.	16a-/LL	16a-/LL	.	.	.	.	.
8r	.	8r	.	16f/	16f/	.	.	.	.	.
.	.	.	.	16c/JJ	16c/JJ	.	.	.	.	.
!	!	!	!	!	!	!	!	!	!LO:SIC:v:l:s=-tur	!
8C/	n	8c\	.	16r	16r	.	4en\	-tur	4g\	-tem
.	.	.	.	16g/LL	16g/LL	.	.	.	.	.
!	!	!	!	!LO:SIC:v:s=16en	!	!	!	!	!	!
8r	.	8r	.	16e-/	16en/	.	.	.	.	.
.	.	.	.	16c/JJ	16c/JJ	.	.	.	.	.
8An\	6	8an\	.	16r	16r	.	2r	.	4.cc\	fac
.	.	.	.	16cc/LL	16cc/LL	.	.	.	.	.
8r	.	8r	.	16cc/	16an/	.	.	.	.	.
!	!	!	!	!LO:SIC:v:s=16an	!	!	!	!	!	!
.	.	.	.	16a-/JJ	16f/JJ	.	.	.	.	.
8F\	-7	8f\	.	16r	16r	.	.	.	.	.
.	.	.	.	16ee-/LL	(16ee-/LL	.	.	.	.	.
8r	.	8r	.	16cc/	16cc/	.	.	.	8ee-\	ut
.	.	.	.	16a-/JJ	16an/JJ)	.	.	.	.	.
!	!	!	!	!	!	!	!	!	!LO:LB:g=original	!
=11	=11	=11	=11	=11	=11	=11	=11	=11	=11	=11
!	!	!	!	!	!	!	!LO:TX:a:t=1	!	!	!
8BB-/	-	8B-/	.	16r	16r	.	1r	.	4.dd-X\	a-
.	.	.	.	16ff\LL	(16ff\LL	.	.	.	.	.
!	!	!	!	!LO:SIC:v:s=16dd-	!	!	!	!	!	!
8r	.	8r	.	16dd\	16dd-X\	.	.	.	.	.
.	.	.	.	16b-\JJ	16b-\JJ)	.	.	.	.	.
8D-X\	6	8d-X\	.	16r	16r	.	.	.	.	.
.	.	.	.	16dd-\LL	(16dd-X\LL	.	.	.	.	.
8r	.	8r	.	16b-\	16b-\	.	.	.	8b-\	-ni-
.	.	.	.	16f\JJ	16f\JJ)	.	.	.	.	.
!	!	!	!	!	!	!	!	!	!LO:SIC:v:l:s=-mae	!
8E-\	-	8e-\	.	16r	16r	.	.	.	4.cc\	-ma
.	.	.	.	16g-X/LL	(16g-X/LL	.	.	.	.	.
8r	.	8r	.	16e-/	16e-/	.	.	.	.	.
.	.	.	.	16c/JJ	16c/JJ)	.	.	.	.	.
8F\	7	8f\	.	16r	16r	.	.	.	.	.
.	.	.	.	16e-/LL	16e-/LL	.	.	.	.	.
8r	.	8r	.	16c/	16c/	.	.	.	8an\	do-
!	!	!	!	!LO:SIC:v:s=16An	!	!	!	!	!	!
.	.	.	.	16A-/JJ	16An/JJ	.	.	.	.	.
!LO:LB:g=original	!	!	!	!	!	!	!	!	!	!
=12	=12	=12	=12	=12	=12	=12	=12	=12	=12	=12
8B-\	-	8b-\	.	16r	16r	.	2r	.	16b-\LL	-ne-
.	.	.	.	16B-/LL	(16B-/LL	.	.	.	16an\JJ	.
8r	.	8r	.	16d-X/	16d-X/	.	.	.	4.b-\	-tur
.	.	.	.	16f/JJ	16f/JJ)	.	.	.	.	.
8A-\	.	8a-X\	.	16r	16r	.	.	.	.	.
.	.	.	.	16d-/LL	(16d-X/LL	.	.	.	.	.
8r	.	8r	.	16f/	16f/	.	.	.	.	.
.	.	.	.	16b-/JJ	16b-/JJ)	.	.	.	.	.
8G\	6	8g\	.	16r	16r	.	4.b-\	fac	2r	.
.	.	.	.	16b-/LL	(16b-/LL	.	.	.	.	.
8r	.	8r	.	16g/	16g/	.	.	.	.	.
.	.	.	.	16e-/JJ	16e-/JJ)	.	.	.	.	.
8E-\	-7	8e-\	.	16r	16r	.	.	.	.	.
.	.	.	.	16dd-X\LL	(16dd-X\LL	.	.	.	.	.
8r	.	8r	.	16b-\	16b-\	.	8dd-X\	ut	.	.
.	.	.	.	16g\JJ	16g\JJ)	.	.	.	.	.
!	!	!	!	!	!LO:LB:g=original	!	!	!	!	!
=13	=13	=13	=13	=13	=13	=13	=13	=13	=13	=13
8A-\	.	8a-\	.	16r	16r	.	4.cc\	a-	1r	.
.	.	.	.	16ee-\LL	(16ee-\LL	.	.	.	.	.
8r	.	8r	.	16cc\	16cc\	.	.	.	.	.
.	.	.	.	16a-\JJ	16a-\JJ)	.	.	.	.	.
8C/	6	8c\	.	16r	16r	.	.	.	.	.
.	.	.	.	16cc\LL	16cc\LL	.	.	.	.	.
8r	.	8r	.	16a-\	16a-\	.	8a-\	-ni-	.	.
.	.	.	.	16e-\JJ	16e-\JJ	.	.	.	.	.
8D-X\	6 5	8d-X\	.	16r	16r	.	4.b-\	-ma	.	.
.	.	.	.	16f/LL	(16f/LL	.	.	.	.	.
8r	.	8r	.	16d-X/	16d-X/	.	.	.	.	.
.	.	.	.	16B-/JJ	16B-/JJ)	.	.	.	.	.
!	!	!LO:LB:g=original	!	!	!	!	!	!	!	!
8E-\	.	8e-\	.	16r	16r	.	.	.	.	.
.	.	.	.	16d-/LL	(16d-/LL	.	.	.	.	.
8r	.	8r	.	16B-/	16B-/)	.	8g\	do-	.	.
.	.	.	.	16G/JJ	16G/JJ	.	.	.	.	.
!	!	!	!	!LO:LB:g=original	!	!	!	!	!	!
=14	=14	=14	=14	=14	=14	=14	=14	=14	=14	=14
8A-\	.	8a-\	.	16r	16r	.	16a-\LL	-ne-	4.ee-\	Pa-
.	.	.	.	16cc/LL	(16cc/LL	.	16g\JJ	.	.	.
8r	.	8r	.	16a-/	16a-/	.	8a-\	-tur	.	.
.	.	.	.	16e-/JJ	16e-/JJ)	.	.	.	.	.
8A-\	.	8a-\	.	16r	16r	.	4r	.	.	.
.	.	.	.	16cc/LL	(16cc/LL	.	.	.	.	.
8r	.	8r	.	16a-/	16a-/	.	.	.	8ee-\	-ra-
.	.	.	.	16e-/JJ	16e-/JJ)	.	.	.	.	.
*	*	*	*	*	*	*	*	*	*2\right	*
8G-X\	6	8g-X\	.	16r	16r	.	4.b-\	Pa-	2ee-\	-di-
.	.	.	.	16ee-\LL	16ee-\LL	.	.	.	.	.
8r	.	8r	.	16b-\	(16b-\	.	.	.	.	.
.	.	.	.	16g-X\JJ	16g-X\JJ)	.	.	.	.	.
8G-\	.	8g-\	.	16r	16r	.	.	.	.	.
.	.	.	.	16ee-\LL	16ee-\LL	.	.	.	.	.
8r	.	8r	.	16b-\	(16b-\	.	8b-\	-ra-	.	.
.	.	.	.	16g-X\JJ	16g-X\JJ)	.	.	.	.	.
!	!	!	!	!	!	!	!LO:LB:g=original	!	!	!
=15	=15	=15	=15	=15	=15	=15	=15	=15	=15	=15
8F\	.	8f\	.	16r	16r	.	4an\	-di-	4ee-\	.
.	.	.	.	16ff\LL	16ff\LL	.	.	.	.	.
8r	.	8r	.	16cc\	(16cc\	.	.	.	.	.
!	!	!	!	!LO:SIC:v:s=16an	!	!	!	!	!	!
.	.	.	.	16g-X\JJ	16an\JJ)	.	.	.	.	.
8F\	.	8f\	.	16r	16r	.	4b-\	-si	4dd-X\	-si
.	.	.	.	16dd-X\LL	16dd-X\LL	.	.	.	.	.
8r	.	8r	.	16b-\	(16b-\	.	.	.	.	.
.	.	.	.	16f\JJ	16f\JJ)	.	.	.	.	.
8F\	.	8f\	.	16r	16r	.	4b-\	glo-	4.cc\	glo-
.	.	.	.	16cc\LL	16cc\LL	.	.	.	.	.
!	!	!	!	!LO:SIC:v:s=16b-	!LO:SIC:v:s=16b-	!	!	!	!	!
8r	.	8r	.	16an\	(16an\	.	.	.	.	.
.	.	.	.	16f\JJ	16f\JJ)	.	.	.	.	.
8F\	.	8f\	.	16r	16r	.	8.an\	.	.	.
.	.	.	.	16cc\LL	(16cc\LL	.	.	.	.	.
8r	.	8r	.	16a\	16a\	.	.	.	8cc\	-ri-
.	.	.	.	16f\JJ	16f\JJ)	.	16a\	-ri-	.	.
=16	=16	=16	=16	=16	=16	=16	=16	=16	=16	=16
8BB-/	-	8B-/	.	16r	16r	.	4b-\	-a	4b-\	-a
.	.	.	.	16ff\LL	16ff\LL	.	.	.	.	.
!	!	!	!	!LO:SIC:v:s=16dd-	!	!	!	!	!	!
8r	.	8r	.	16dd\	(16dd-X\	.	.	.	.	.
.	.	.	.	16b-\JJ	16b-\JJ)	.	.	.	.	.
8D-X/	6	8d-X\	.	16r	16r	.	4r	.	4r	.
.	.	.	.	16dd-X\LL	16dd-X\LL	.	.	.	.	.
8r	.	8r	.	16b-\	16b-\	.	.	.	.	.
.	.	.	.	16f\JJ	16f\JJ	.	.	.	.	.
8E-\	6 5	8e-\	.	16r	16r	.	2r	.	2r	.
!	!	!	!	!LO:SIC:v:s=16g-	!	!	!	!	!	!
.	.	.	.	16g/LL	16g-X/LL	.	.	.	.	.
8r	.	8r	.	16e-/	16e-/	.	.	.	.	.
.	.	.	.	16c/JJ	16c/JJ	.	.	.	.	.
8F\	n	8f\	.	16r	16r	.	.	.	.	.
.	.	.	.	16e-/LL	16e-/LL	.	.	.	.	.
8r	.	8r	.	16c/	16c/	.	.	.	.	.
!	!	!	!	!LO:SIC:v:s=16An	!	!	!	!	!	!
.	.	.	.	16A-/JJ	16An/JJ	.	.	.	.	.
=17	=17	=17	=17	=17	=17	=17	=17	=17	=17	=17
8BB-/	-	8B-/	.	16r	16r	.	4dd-X\	Quan-	2r	.
.	.	.	.	16B-/LL	(16B-/LL	.	.	.	.	.
8r	.	8r	.	16d-X/	16d-X/	.	.	.	.	.
.	.	.	.	16f/JJ	16f/JJ)	.	.	.	.	.
8D-X\	6	8d-X\	.	16r	16r	.	4f\	-do	.	.
!	!	!	!	!LO:SIC:v:s=16dd-	!	!	!	!	!	!
.	.	.	.	16dd\LL	16dd-X\LL	.	.	.	.	.
8r	.	8r	.	16b-\	16b-\	.	.	.	.	.
.	.	.	.	16g\JJ	16f\JJ	.	.	.	.	.
*	*	*	*	*	*	*	*2\right	*	*	*
8C/	n	8c\	.	16r	16r	.	2en\	Cor-	4gg\	Quan-
.	.	.	.	16g/LL	(16g/LL	.	.	.	.	.
!	!	!	!	!LO:SIC:v:s=16en	!	!	!	!	!	!
8r	.	8r	.	16e-/	16en/	.	.	.	.	.
.	.	.	.	16c/JJ	16c/JJ)	.	.	.	.	.
8C/	7	8c\	.	16r	16r	.	.	.	4b-\	-do
.	.	.	.	16b-/LL	16b-/LL	.	.	.	.	.
8r	.	8r	.	16g/	16g/	.	.	.	.	.
.	.	.	.	16en/JJ	16en/JJ	.	.	.	.	.
!	!	!	!	!	!LO:LB:g=original	!	!	!	!	!
=18	=18	=18	=18	=18	=18	=18	=18	=18	=18	=18
8C/	6 4	8c\	.	16r	16r	.	2f\	-pus	4b-\	Cor-
.	.	.	.	16cc/LL	(16cc/LL	.	.	.	.	.
8r	.	8r	.	16b-/	16b-/	.	.	.	.	.
.	.	.	.	16f/JJ	16f/JJ)	.	.	.	.	.
8C/	6 4	8c\	.	16r	16r	.	.	.	4a-\	-pus
.	.	.	.	16cc/LL	(16cc/LL	.	.	.	.	.
8r	.	8r	.	16a-/	16a-/	.	.	.	.	.
.	.	.	.	16f/JJ	16f/JJ)	.	.	.	.	.
!LO:LB:g=original	!	!	!	!	!	!	!	!	!	!
8C/	7	8c\	.	16r	16r	.	2f\	mo-	2bn\	mo-
.	.	.	.	16bn/LL	16bn/LL	.	.	.	.	.
8r	.	8r	.	16a-X/	16a-X/	.	.	.	.	.
.	.	.	.	16f/JJ	16f/JJ	.	.	.	.	.
!	!	!	!	!LO:LB:g=original	!	!	!	!	!	!
8C/	.	8c\	.	16r	16r	.	.	.	.	.
.	.	.	.	16bn/LL	16bn/LL	.	.	.	.	.
8r	.	8r	.	16a-/	16a-X/	.	.	.	.	.
.	.	.	.	16f/JJ	16f/JJ	.	.	.	.	.
=19	=19	=19	=19	=19	=19	=19	=19	=19	=19	=19
8C/	-7	8c\	.	16r	16r	.	2en\	-ri-	2b-X\	-ri-
.	.	.	.	16b-X/LL	(16b-X/LL	.	.	.	.	.
8r	.	8r	.	16g/	16g/	.	.	.	.	.
.	.	.	.	16en/JJ	16en/JJ)	.	.	.	.	.
8C/	.	8c\	.	16r	16r	.	.	.	.	.
.	.	.	.	16b-/LL	(16b-/LL	.	.	.	.	.
8r	n	8r	.	16g/	16g/	.	.	.	.	.
.	.	.	.	16c/JJ	16c/JJ)	.	.	.	.	.
8C/	6 4	8c\	.	16r	16r	.	2f\	-e-	4an\	-e-
.	.	.	.	16an/LL	16an/LL	.	.	.	.	.
8r	#	8r	.	16f/	16f/	.	.	.	.	.
.	.	.	.	16c/JJ	16c/JJ	.	.	.	.	.
8C/	6 4	8c\	.	16r	16r	.	.	.	4a-X\	.
!	!	!	!	!	!LO:TX:a:t=P:problem=przed bemolem kasownik	!	!	!	!	!
.	.	.	.	16a-X/LL	16a-X/LL	.	.	.	.	.
8r	.	8ryy	.	16f/	16f/	.	.	.	.	.
!	!	!	!	!LO:SIC:v:s=16Bn	!LO:SIC:v:s=16Bn	!	!	!	!	!
.	.	.	.	16B-/JJ	16B-/JJ	.	.	.	.	.
!	!	!LO:LB:g=original	!	!	!	!	!	!	!	!
=20	=20	=20	=20	=20	=20	=20	=20	=20	=20	=20
8C/	n	8c\	.	16r	16r	.	4en\	-tur	4g\	-tur
.	.	.	.	16g/LL	(16g/LL	.	.	.	.	.
8r	.	8r	.	16en/	16en/)	.	.	.	.	.
.	.	.	.	16c/JJ	16c/JJ	.	.	.	.	.
8C/	.	8c\	.	16r	16r	.	2cc\	fac	4r	.
.	.	.	.	16g/LL	(16g/LL	.	.	.	.	.
8r	-	8r	.	16e/	16en/	.	.	.	.	.
.	.	.	.	16c/JJ	16c/JJ)	.	.	.	.	.
!	!	!	!	!	!	!	!	!	!LO:LB:g=original	!
8C/	2	8c\	.	16r	16r	.	.	.	4.dd-X\	Fac
.	.	.	.	16dd-X/LL	(16dd-X\LL	.	.	.	.	.
8r	.	8r	.	16b-/	16b-\	.	.	.	.	.
.	.	.	.	16g/JJ	16g\JJ)	.	.	.	.	.
8C/	n	8c\	.	16r	16r	.	4b-\	ut	.	.
.	.	.	.	16b-/LL	(16b-/LL	.	.	.	.	.
8r	.	8r	.	16g/	16g/	.	.	.	8een\	ut
.	.	.	.	16en/JJ	16en/JJ)	.	.	.	.	.
=21	=21	=21	=21	=21	=21	=21	=21	=21	=21	=21
8C/	6 4	8c\	.	16r	16r	.	4a-\	a-	4ff\	a-
.	.	.	.	16cc/LL	16cc/LL	.	.	.	.	.
8r	-	8r	.	16a-/	16a-/	.	.	.	.	.
.	.	.	.	16f/JJ	16f/JJ	.	.	.	.	.
8C/	6	8c\	.	16r	16r	.	4an\	-ni-	4ee-X\	-ni-
.	.	.	.	16ee-\LL	16ee-\LL	.	.	.	.	.
8r	-	8r	.	16cc\	(16cc\	.	.	.	.	.
.	.	.	.	16an\JJ	16an\JJ)	.	.	.	.	.
!	!	!	!	!	!	!	!	!	!LO:SIC:v:l:s=-mae	!
8C/	6	8c\	.	16r	16r	.	4b-X\	-ma	4dd-X\	-ma
!	!	!	!	!LO:SIC:v:s=16dd-	!	!	!	!	!	!
.	.	.	.	16dd/LL	(16dd-X\LL	.	.	.	.	.
8r	n	8r	.	16b-/	16b-\	.	.	.	.	.
.	.	.	.	16f/JJ	16f\JJ)	.	.	.	.	.
8C/	7	8c\	.	16r	16r	.	4bn\	do-	4ff\	do-
!	!	!	!	!LO:SIC:v:s=16ff	!	!	!	!	!	!
.	.	.	.	16ee-\LL	(16ff\LL	.	.	.	.	.
8r	.	8r	.	16ddn\	16ddn\	.	.	.	.	.
.	.	.	.	16b-\JJ	16bn\JJ)	.	.	.	.	.
=22	=22	=22	=22	=22	=22	=22	=22	=22	=22	=22
8C/	n	8c\	.	16r	16r	.	4cc\	-ne-	16een\LL	-ne-
.	.	.	.	16gg\LL	16gg\LL	.	.	.	16dd\JJ	.
8r	.	8r	.	16een\	16een\	.	.	.	4.cc\	-tur
.	.	.	.	16cc\JJ	16cc\JJ	.	.	.	.	.
8c\	.	8cc\	.	16r	16r	.	4c/	-tur	.	.
.	.	.	.	16een\LL	16een\LL	.	.	.	.	.
8r	.	8r	.	16cc\	16cc\	.	.	.	.	.
!	!	!	!	!LO:SIC:v:s=16g	!	!	!	!	!	!
.	.	.	.	16a-\JJ	16g\JJ	.	.	.	.	.
8B-\	-	8b-\	.	16r	16r	.	2r	.	4.dd-X\	Pa-
.	.	.	.	16dd-X\LL	16dd-X\LL	.	.	.	.	.
8r	.	8r	.	16b-\	16b-\	.	.	.	.	.
.	.	.	.	16g\JJ	16g\JJ	.	.	.	.	.
!	!	!	!	!	!LO:LB:g=original	!	!	!	!	!
8G\	n6	8g\	.	16r	16r	.	.	.	.	.
.	.	.	.	16b-/LL	(16b-/LL	.	.	.	.	.
8r	.	8r	.	16g/	16g/	.	.	.	8een\	-ra-
.	.	.	.	16en/JJ	16en/JJ)	.	.	.	.	.
!	!	!	!	!	!	!	!LO:LB:g=original	!	!	!
=23	=23	=23	=23	=23	=23	=23	=23	=23	=23	=23
!	!	!	!	!	!	!	!LO:TX:a:t=1	!	!LO:SIC:v:s=8qqeen	!
.	.	.	.	.	.	.	.	.	8qqee-/	.
8A-\	6	8a-\	.	16r	16r	.	1r	.	4.ff\	-di-
.	.	.	.	16cc/LL	(16cc/LL	.	.	.	.	.
8r	.	8r	.	16a-/	16a-/	.	.	.	.	.
.	.	.	.	16f/JJ	16f/JJ)	.	.	.	.	.
8B-\	6 4	8b-\	.	16r	16r	.	.	.	.	.
.	.	.	.	16dd-X\LL	(16dd-X/LL	.	.	.	.	.
8r	.	8r	.	16b-\	16b-/	.	.	.	8b-\	-si
.	.	.	.	16g\JJ	16g/JJ)	.	.	.	.	.
.	.	.	.	.	.	.	.	.	8qqb-/	.
!	!	!	!	!LO:LB:g=original	!	!	!	!	!	!
8c\	6 4	8cc\	.	16r	16r	.	.	.	4.a-/	glo-
.	.	.	.	16cc/LL	(16cc/LL	.	.	.	.	.
8r	.	8r	.	16a-/	16a-/	.	.	.	.	.
.	.	.	.	16f/JJ	16f/JJ)	.	.	.	.	.
8C/	n	8c/	.	16r	16r	.	.	.	.	.
.	.	.	.	16b-/LL	(16b-/LL	.	.	.	.	.
8r	.	8r	.	16g/	16g/	.	.	.	8g/	-ri-
.	.	.	.	16en/JJ	16en/JJ)	.	.	.	.	.
=24	=24	=24	=24	=24	=24	=24	=24	=24	=24	=24
8D-X\	6	8d-X\	.	16r	16r	.	4b-\	Pa-	4f/	-a
.	.	.	.	16dd-X\LL	(16dd-X\LL	.	.	.	.	.
8r	.	8r	.	16an\	16an\	.	.	.	.	.
.	.	.	.	16b-\JJ	16b-\JJ)	.	.	.	.	.
8D-\	6	8d-\	.	16r	16r	.	4b-\	-ra-	4r	.
.	.	.	.	16dd-X\LL	(16dd-\LL	.	.	.	.	.
8r	n	8r	.	16an\	16an\	.	.	.	.	.
.	.	.	.	16b-\JJ	16b-\JJ)	.	.	.	.	.
8D-\	6	8d-\	.	16r	16r	.	2bn\	-di-	4ff\	Pa-
.	.	.	.	16ff\LL	(16ff\LL	.	.	.	.	.
8r	.	8r	.	16dd-\	16dd-X\	.	.	.	.	.
.	.	.	.	16bn\JJ	16bn\JJ)	.	.	.	.	.
8D-\	.	8d-\	.	16r	16r	.	.	.	4ff\	-ra-
.	.	.	.	16ff\LL	(16ff\LL	.	.	.	.	.
8r	.	8r	.	16dd-X\	16dd-X\	.	.	.	.	.
.	.	.	.	16bn\JJ	16bn\JJ)	.	.	.	.	.
!LO:LB:g=original	!	!	!	!	!	!	!	!	!	!
=25	=25	=25	=25	=25	=25	=25	=25	=25	=25	=25
8C/	n -7	8c\	.	16r	16r	.	4cc\	-si	4een\	-di-
.	.	.	.	(16gg\LL	(16gg\LL	.	.	.	.	.
8r	.	8r	.	16een\	16een\	.	.	.	.	.
.	.	.	.	16cc\JJ)	16cc\JJ)	.	.	.	.	.
8C/	6 4	8c\	.	16r	16r	.	4a-\	.	4ff\	-si
.	.	.	.	(16aa-\LL	(16aa-\LL	.	.	.	.	.
8r	.	8r	.	16ff\	16ff\	.	.	.	.	.
.	.	.	.	16dd\JJ)	16dd\JJ)	.	.	.	.	.
8C/	n	8c\	.	16r	16r	.	4.g\	glo-	4ff\	.
.	.	.	.	(16gg\LL	(16gg\LL	.	.	.	.	.
8r	.	8r	.	16een\	16een\	.	.	.	.	.
.	.	.	.	16cc\JJ)	16cc\JJ)	.	.	.	.	.
8C/	.	8c\	.	16r	16r	.	.	.	8.een\	glo-
.	.	.	.	(16gg\LL	(16gg\LL	.	.	.	.	.
8r	.	8r	.	16een\	16een\	.	8g\	-ri-	.	.
.	.	.	.	16cc\JJ)	16cc\JJ)	.	.	.	16ff\	-ri-
=26	=26	=26	=26	=26	=26	=26	=26	=26	=26	=26
.	.	.	.	.	8qqb-/	.	.	.	.	.
!	!	!	!	!	!	!	!	!	!LO:TX:a:t=d:problem=znaczek przypominający d	!
8D-X\	.	4d-X;\	.	4a-;/	4a-;/	.	4f;\	-a	4ff\	-a
8ryy	.	.	.	.	.	.	.	.	.	.
4r;	.	4r	.	4r	4r	.	4r	.	4r	.
!	!	!LO:LB:g=original	!	!	!	!	!	!	!	!
8D-\	.	8d-X\	.	16r	16r	.	2r	.	4b-\	Pa-
.	.	.	.	16dd-X\LL	(16dd-X\LL	.	.	.	.	.
8r	.	8r	.	16an\	16an\	.	.	.	.	.
.	.	.	.	16b-\JJ	16b-\JJ)	.	.	.	.	.
8D-\	.	8d-\	.	16r	16r	.	.	.	4b-\	-ra-
.	.	.	.	16dd-X\LL	(16dd-X\LL	.	.	.	.	.
8r	.	8r	.	16a\	16an\	.	.	.	.	.
.	.	.	.	16b-\JJ	16b-\JJ)	.	.	.	.	.
!	!	!	!	!	!	!	!	!	!LO:LB:g=original	!
=27	=27	=27	=27	=27	=27	=27	=27	=27	=27	=27
!	!	!LO:SIC:v:s=8d-	!	!	!	!	!	!	!	!
8D-X\	#n6	8d\	.	16r	16r	.	4f\	Pa-	2bn\	-di-
.	n	.	.	16dd-X\LL	(16dd-X\LL	.	.	.	.	.
!	!	!	!	!LO:SIC:v:s=16b-	!LO:SIC:v:s=16b-	!	!	!	!	!
8r	.	8r	.	16bn\	16bn\	.	.	.	.	.
.	.	.	.	16f\JJ	16f\JJ)	.	.	.	.	.
!	!	!LO:SIC:v:s=8d-	!	!	!	!	!	!	!	!
8D-\	.	8d\	.	16r	16r	.	4f\	-ra-	.	.
.	.	.	.	16dd-X\LL	16dd-X\LL	.	.	.	.	.
!	!	!	!	!LO:SIC:v:s=16b-	!LO:SIC:v:s=16b-	!	!	!	!	!
8r	.	8r	.	16b\	16bn\	.	.	.	.	.
.	.	.	.	16f\JJ	16f\JJ	.	.	.	.	.
8C/	7	8c\	.	16r	16r	.	4en\	-di-	4cc\	.
!	!	!	!	!	!LO:LB:g=original	!	!	!	!	!
!	!	!	!	!	!LO:SIC:v:s=16b-	!	!	!	!	!
.	.	.	.	16b-X/LL	(16b/LL	.	.	.	.	.
8r	.	8r	.	16g/	16g/	.	.	.	.	.
.	.	.	.	16en/JJ	16en/JJ)	.	.	.	.	.
8C/	6 4	8c\	.	16r	16r	.	4f\	-si	4a-\	-si
.	.	.	.	16cc/LL	(16cc/LL	.	.	.	.	.
8r	.	8r	.	16a-/	16a-/	.	.	.	.	.
.	.	.	.	16f/JJ	16f/JJ)	.	.	.	.	.
!	!	!	!	!LO:LB:g=original	!	!	!	!	!	!
=28	=28	=28	=28	=28	=28	=28	=28	=28	=28	=28
8C/	6 4	8c\	.	16r	16r	.	4f\	glo-	4.g/	glo-
!	!	!	!	!LO:SIC:v:s=16cc	!	!	!	!	!	!
.	.	.	.	16b-/LL	(16cc/LL	.	.	.	.	.
8r	.	8r	.	16g/	16g/	.	.	.	.	.
.	.	.	.	16f/JJ	16f/JJ)	.	.	.	.	.
8C/	n 7	8c\	.	16r	16r	.	8.en\	.	.	.
.	.	.	.	16b-/LL	16b-/LL	.	.	.	.	.
8r	.	8r	.	16g/	16g/	.	.	.	8g/	-ri-
.	.	.	.	16en/JJ	16en/JJ	.	16e\	-ri-	.	.
8F\	.	8f\	.	16r	16r	.	4f\	-a	4f/	-a
.	.	.	.	16a-/LL	(16a-/LL	.	.	.	.	.
8r	.	8r	.	16en/	16en/	.	.	.	.	.
.	.	.	.	16f/JJ	16f/JJ)	.	.	.	.	.
8AA-/	6	8A-/	.	16r	16r	.	4r	.	4r	.
.	.	.	.	16cc/LL	(16cc/LL	.	.	.	.	.
8ryy	.	8r	.	16a-/	16a-/	.	.	.	.	.
.	.	.	.	16f/JJ	16f/JJ)	.	.	.	.	.
=29	=29	=29	=29	=29	=29	=29	=29	=29	=29	=29
8BB-/	6 -5	8B-/	.	16r	16r	.	1r	.	1r	.
.	.	.	.	16dd-X\LL	(16dd-X\LL	.	.	.	.	.
8r	.	8r	.	16b-\	16b-\	.	.	.	.	.
.	.	.	.	16g\JJ	16g\JJ)	.	.	.	.	.
8C/	n 7	8c/	.	16r	16r	.	.	.	.	.
.	.	.	.	16b-/LL	(16b-/LL	.	.	.	.	.
8r	.	8r	.	16g/	16g/	.	.	.	.	.
!	!	!	!	!LO:SIC:v:s=16en	!	!	!	!	!	!
.	.	.	.	16e-/JJ	16en/JJ)	.	.	.	.	.
4FF/	.	4F/	.	4f/	4f/	.	.	.	.	.
!	!	!	!	!LO:TX:b:i:t=Cito Amen	!	!	!	!	!LO:TX:a:t=P:problem=pojedyncza kreska taktowa	!
4r	.	4r	.	4r;	4r	.	.	.	.	.
!	!	!	!	!LO:PB:g=original	!	!	!LO:LB:g=original	!	!	!
=30||	=30||	=30||	=30||	=30||	=30||	=30||	=30||	=30||	=30||	=30||
*k[e-b-a-]	*	*k[e-b-a-]	*	*k[e-b-a-]	*k[e-b-a-]	*	*k[e-b-a-]	*	*k[e-b-a-]	*
*	*	*	*	*	*met(c|)	*	*	*	*	*
!LO:TX:a:t=P:problem=bemole F- C- BB-	!	!LO:TX:a:t=P:problem=bemole f- c- A-	!	!	!	!	!	!	!	!
!LO:TX:a:t=6.	!	!LO:TX:a:t=6	!	!	!	!	!	!	!LO:TX:a:t=P:problem=bemole ee- b- a-	!
!LO:TX:b:i:t=Amen	!	!LO:TX:b:i:t=Amen	!	!LO:TX:b:i:t=Amen	!LO:TX:b:i:t=Amen	!	!	!	!	!
!LO:TX:a:i:t=Allegro	!	!LO:TX:a:i:t=Allo	!	!LO:TX:a:i:t=Allo	!LO:TX:a:i:t=Allo	!	!LO:TX:a:i:t=Allo	!	!LO:TX:a:i:t=Allo	!
00r	.	00r	.	2r	1cc	.	00r	.	1cc	A-
.	.	.	.	4a-/	.	.	.	.	.	.
.	.	.	.	4f/	.	.	.	.	.	.
=31	=31	=31	=31	=31	=31	=31	=31	=31	=31	=31
*	*	*	*	*2\right	*	*	*	*	*	*
.	.	.	.	2b-/	1dd-X	.	.	.	1dd-X	-men
.	.	.	.	4g/	.	.	.	.	.	.
.	.	.	.	4e-/	.	.	.	.	.	.
=32	=32	=32	=32	=32	=32	=32	=32	=32	=32	=32
.	.	.	.	2a-/	1cc	.	.	.	1cc	A-
.	.	.	.	4f/	.	.	.	.	.	.
.	.	.	.	4d-X/	.	.	.	.	.	.
=33	=33	=33	=33	=33	=33	=33	=33	=33	=33	=33
.	.	.	.	2g/	1b-	.	.	.	1b-	.
.	.	.	.	4en/	.	.	.	.	.	.
.	.	.	.	4c/	.	.	.	.	.	.
=34	=34	=34	=34	=34	=34	=34	=34	=34	=34	=34
!LO:TX:a:t=P:problem=powinna być pauza 0r	!	!	!	!	!	!	!	!	!	!
00r	.	0r	.	4f/	2a-/	.	0r	.	2a-\	.
!	!	!	!	!LO:SIC:v:s=4e-	!	!	!	!	!	!
.	.	.	.	4e-/	.	.	.	.	.	.
.	.	.	.	4d-X/	4b-/	.	.	.	4b-\	.
.	.	.	.	4c/	4a-/	.	.	.	4a-\	.
=35	=35	=35	=35	=35	=35	=35	=35	=35	=35	=35
.	.	.	.	2B-/	1g	.	.	.	1g	.
.	.	.	.	2c/	.	.	.	.	.	.
=36	=36	=36	=36	=36	=36	=36	=36	=36	=36	=36
!	!	!LO:TX:a:t=P:problem=nadmiarowe pauzy w organach	!	!LO:TX:a:t=P:problem=nadmiarowe pauzy w organach	!LO:TX:a:t=P:problem=nadmiarowe pauzy w organach	!	!LO:TX:a:t=P:problem=nadmiarowe pauzy w organach	!	!LO:TX:a:t=P:problem=nadmiarowe pauzy w organach	!
.	.	1ryy	.	1ryy	1ryy	.	1ryy	.	1ryy	.
=37	=37	=37	=37	=37	=37	=37	=37	=37	=37	=37
.	.	1ryy	.	1ryy	1ryy	.	1ryy	.	1ryy	.
=38	=38	=38	=38	=38	=38	=38	=38	=38	=38	=38
2r	.	2r	.	1ff	2f/	.	1f	A-	2f/	-men
*clefC3	*	*	*	*	*	*	*	*	*	*
!LO:SIC:v:s=4A-	!	!LO:SIC:v:s=4A-	!	!	!	!	!	!	!	!
4c/	8	4c/	.	.	4c/	.	.	.	2r	.
!LO:SIC:v:s=4G	!	!LO:SIC:v:s=4G	!	!	!	!	!	!	!	!
4B-/	.	4B-/	.	.	4B-/	.	.	.	.	.
=39	=39	=39	=39	=39	=39	=39	=39	=39	=39	=39
!LO:SIC:v:s=2F	!	!LO:SIC:v:s=2F	!	!	!	!	!	!	!	!
2A-/	.	2A-/	.	1aa-	2A-/	.	1a-	-men	2r	.
*	*	*	*	*	*2\right	*	*	*	*	*
!LO:SIC:v:s=4f	!	!LO:SIC:v:s=4f	!	!	!	!	!	!	!	!
4a-\	.	4a-\	.	.	[2ff\	.	.	.	[2ff\	a-
!LO:SIC:v:s=4d	!	!LO:SIC:v:s=4d	!	!	!	!	!	!	!	!
4f\	.	4f\	.	.	.	.	.	.	.	.
!LO:LB:g=original	!	!	!	!	!	!	!	!	!	!
=40	=40	=40	=40	=40	=40	=40	=40	=40	=40	=40
*2\right	*	*2\right	*	*	*	*	*	*	*	*
!LO:SIC:v:s=2e-	!	!LO:SIC:v:s=2e-	!	!	!	!	!	!	!	!
2g\	.	2g\	.	1gg	2ff\]	.	1g	A-	2ff\]	.
!LO:SIC:v:s=4c	!	!LO:SIC:v:s=4c	!	!	!	!	!	!	!	!
4e-\	6 5	4e-\	.	.	2ee-\	.	.	.	2ee-\	.
!LO:SIC:v:s=4A-	!	!LO:SIC:v:s=4A-	!	!	!	!	!	!	!	!
4c\	.	4c\	.	.	.	.	.	.	.	.
!	!	!LO:LB:g=original	!	!	!	!	!	!	!	!
=41	=41	=41	=41	=41	=41	=41	=41	=41	=41	=41
!LO:SIC:v:s=2d	!	!LO:SIC:v:s=2d	!	!	!	!	!	!	!	!
2f\	9	2f\	.	1ff	2ee-\	.	1f	.	2ee-\	.
!LO:SIC:v:s=4Bn	!	!LO:SIC:v:s=4Bn	!	!	!	!	!	!	!	!
4d\	6 5	4dn\	.	.	[2dd\	.	.	.	2dd\	.
!LO:SIC:v:s=4G	!	!LO:SIC:v:s=4G	!	!	!	!	!	!	!	!
4B-\	.	4B-\	.	.	.	.	.	.	.	.
!	!	!	!	!	!LO:LB:g=original	!	!	!	!	!
=42	=42	=42	=42	=42	=42	=42	=42	=42	=42	=42
!LO:SIC:v:s=4c	!	!LO:SIC:v:s=4c	!	!	!	!	!	!	!	!
4e-\	9	4e-\	.	2ee-\	2dd\]	.	2e-\	.	2dd\	.
!LO:SIC:v:s=4B-	!	!LO:SIC:v:s=4B-	!	!	!	!	!	!	!	!
4d\	.	4d\	.	.	.	.	.	.	.	.
!LO:SIC:v:s=4A-	!	!LO:SIC:v:s=4A-	!	!	!	!	!	!	!	!
4c\	6 5	4c\	.	4ff\	[2cc\	.	4f\	.	2cc\	.
!LO:SIC:v:s=4G	!	!LO:SIC:v:s=4G	!	!	!	!	!	!	!	!
4B-\	.	4B-\	.	4ee-\	.	.	4e-\	-men	.	.
=43	=43	=43	=43	=43	=43	=43	=43	=43	=43	=43
!LO:SIC:v:s=2F	!	!LO:SIC:v:s=2F	!	!	!	!	!	!	!	!
2A-/	6 5	2A-/	.	1dd	2cc\]	.	1d	a-	2cc\	.
!LO:SIC:v:s=2G	!	!LO:SIC:v:s=2G	!	!	!	!	!	!	!	!
2B-/	n	2B-/	.	.	(2bn\	.	.	.	2bn\	.
!	!	!	!	!	!	!	!	!	!LO:LB:g=original	!
=44	=44	=44	=44	=44	=44	=44	=44	=44	=44	=44
*clefF4	*	*	*	*	*	*	*	*	*	*
2C/	.	1c	.	2ee-\	2cc\)	.	2c\	-men	2cc\	-men
2C/	n	.	.	2ccc\	4een\	.	2cc\	a-	2r	.
.	.	.	.	.	4cc\	.	.	.	.	.
!	!	!	!	!LO:LB:g=original	!	!	!	!	!	!
=45	=45	=45	=45	=45	=45	=45	=45	=45	=45	=45
1D-X	7	1d-X	.	2ccc\	2ff\	.	2cc\	.	1ff	A-
.	6	.	.	2bb-\	4bb-\	.	2b-\	.	.	.
.	n	.	.	.	4ff\	.	.	.	.	.
=46	=46	=46	=46	=46	=46	=46	=46	=46	=46	=46
1c	-	1c	.	2bb-\	2een\	.	2b-\	.	2een\	.
.	.	.	.	2aa-\	4ee-X\	.	2a-\	.	2ee-X\	.
.	.	.	.	.	4cc\	.	.	.	.	.
=47	=47	=47	=47	=47	=47	=47	=47	=47	=47	=47
!LO:TX:b:t=P:problem=bemol pod nutą	!	!	!	!	!	!	!	!	!	!
1B-	7	1B-	.	2aa-\	2dd\	.	2a-\	.	2dd\	.
.	6	.	.	2gg\	4dd-X\	.	2g\	.	2dd-X\	.
.	.	.	.	.	4b-\	.	.	.	.	.
=48	=48	=48	=48	=48	=48	=48	=48	=48	=48	=48
2A-\	7	2a-\	.	2gg\	2cc\	.	2g\	.	2cc\	.
4B-\	.	4b-\	.	2ff\	4dd-X\	.	2f\	.	4dd-X\	.
4A-\	6	4a-\	.	.	4cc\	.	.	.	4cc\	.
=49	=49	=49	=49	=49	=49	=49	=49	=49	=49	=49
1G	7	1g	.	2ff\	1b-T	.	2f\	.	1b-	.
.	6	.	.	2een\	.	.	2en\	.	.	.
.	n	.	.	.	.	.	.	.	.	.
=50	=50	=50	=50	=50	=50	=50	=50	=50	=50	=50
2F\	.	2f\	.	2ff\	2a-/	.	2f\	-men	2a-\	-men
2F\	.	2f\	.	2aa-\	[2cc\	.	2a-\	A-	2cc\	a-
!	!	!	!	!	!	!	!LO:LB:g=original	!	!	!
=51	=51	=51	=51	=51	=51	=51	=51	=51	=51	=51
2BB-/	9	2B-/	.	2aa-\	2cc\]	.	2a-\	.	2cc\	.
.	-	.	.	.	.	.	.	.	.	.
2BB-/	6 5	2B-/	.	4gg\	4b-\	.	4g\	.	4b-\	.
.	.	.	.	4ff\	4a-\	.	4f\	.	4a-\	.
=52	=52	=52	=52	=52	=52	=52	=52	=52	=52	=52
2C/	n	2c\	.	4een\	4g/	.	2en\	-men	2g\	-men
.	.	.	.	4aa-\	4aa-\	.	.	.	.	.
2r	.	2r	.	4ff\	4ff\	.	2r	.	2ff\	A-
.	.	.	.	4aa-\	4aa-\	.	.	.	.	.
=53	=53	=53	=53	=53	=53	=53	=53	=53	=53	=53
!LO:TX:a:t=1	!	!LO:TX:a:t=1	!	!	!	!	!LO:TX:a:t=1	!	!	!
1r	.	1r	.	4dd-X\	4dd-X\	.	1r	.	2dd-X\	.
.	.	.	.	4ff\	4ff\	.	.	.	.	.
.	.	.	.	4bn\	4bn\	.	.	.	2bn\	.
.	.	.	.	4ddn\	4ddn\	.	.	.	.	.
!	!	!LO:LB:g=original	!	!	!	!	!	!	!	!
=54	=54	=54	=54	=54	=54	=54	=54	=54	=54	=54
4C/	.	4c/	.	2.cc\	1cc	.	1cc	a-	2cc\	-men
4c\	.	4cc\	.	.	.	.	.	.	.	.
4B-X\	.	4b-\	.	.	.	.	.	.	4r	.
4A-\	.	4a-\	.	4ff\	.	.	.	.	4ff\	A-
=55	=55	=55	=55	=55	=55	=55	=55	=55	=55	=55
4G\	6	4g\	.	4een\	1cc	.	1cc	.	4een\	.
4F\	n6	4f\	.	4dd\	.	.	.	.	4dd\	.
4En\	6	4en\	.	4cc\	.	.	.	.	4cc\	.
4Dn\	n6	4dn\	.	4bn\	.	.	.	.	4bn\	.
!	!	!	!	!LO:LB:g=original	!	!	!	!	!	!
=56	=56	=56	=56	=56	=56	=56	=56	=56	=56	=56
!	!	!	!	!	!LO:TX:a:t=P:problem=takty 54-55 zapisane repetycją	!	!	!	!	!
4C/	n	4c/	.	2.cc\	1ccyy	.	1cc	.	2.cc\	.
4c\	.	4cc\	.	.	.	.	.	.	.	.
4B-\	.	4b-\	.	.	.	.	.	.	.	.
4A-\	6	4a-\	.	4ff\	.	.	.	.	4ff\	.
!LO:LB:g=original	!	!	!	!	!	!	!	!	!	!
=57	=57	=57	=57	=57	=57	=57	=57	=57	=57	=57
4G\	n6	4g\	.	4een\	1ccyy	.	1cc	.	4een\	.
4F\	.	4f\	.	4dd\	.	.	.	.	4dd\	.
4En\	n6	4en\	.	4cc\	.	.	.	.	4cc\	.
4D\	.	4dn\	.	4bn\	.	.	.	.	4bn\	.
!	!	!	!	!	!	!	!	!	!LO:LB:g=original	!
=58	=58	=58	=58	=58	=58	=58	=58	=58	=58	=58
2C/	n	2c\	.	1cc	4cc\	.	4cc\	.	2cc\	-men
.	.	.	.	.	4dd-X\	.	4dd-X\	.	.	.
2r	.	2r	.	.	4cc\	.	4cc\	.	2r	.
.	.	.	.	.	4b-\	.	4b-\	.	.	.
=59	=59	=59	=59	=59	=59	=59	=59	=59	=59	=59
!LO:TX:a:t=1	!	!LO:TX:a:t=1	!	!	!	!	!	!	!LO:TX:a:t=1	!
1r	.	1r	.	1r	4a-/	.	4a-\	.	1r	.
.	.	.	.	.	4g/	.	4g\	.	.	.
.	.	.	.	.	4f/	.	4f\	.	.	.
.	.	.	.	.	4en/	.	4en\	.	.	.
!	!	!	!	!	!LO:LB:g=original	!	!	!	!	!
=60	=60	=60	=60	=60	=60	=60	=60	=60	=60	=60
4FF/	.	4F/	.	1ff	2.f/	.	2.f\	.	1ff	A-
4F\	.	4f\	.	.	.	.	.	.	.	.
4E-\	.	4e-\	.	.	.	.	.	.	.	.
4D-X\	6	4d-X\	.	.	4b-/	.	4b-\	.	.	.
=61	=61	=61	=61	=61	=61	=61	=61	=61	=61	=61
4C/	6 n4r	4c/	.	1ff	4an/	.	4an\	.	1ff	.
4BB-/	.	4B-/	.	.	4g/	.	4g\	.	.	.
4AAn/	6	4An/	.	.	4f/	.	4f\	.	.	.
4GG/	6\	4G/	.	.	4en/	.	4en\	.	.	.
=62	=62	=62	=62	=62	=62	=62	=62	=62	=62	=62
4FF/	.	4F/	.	1ff	2f/	.	2.f\	.	1ff	.
4F\	.	4f\	.	.	.	.	.	.	.	.
4E-\	.	4e-\	.	.	2r	.	.	.	.	.
4D-X\	6	4d-X\	.	.	.	.	4b-\	.	.	.
=63	=63	=63	=63	=63	=63	=63	=63	=63	=63	=63
!	!	!	!	!	!LO:TX:a:t=1	!	!	!	!	!
4C/	6 n4r	4c/	.	1ff	1r	.	4an\	.	1ff	.
4BB-/	.	4B-/	.	.	.	.	4g\	.	.	.
4AAn/	6	4An/	.	.	.	.	4f\	.	.	.
!	!	!	!	!	!	!	!LO:SIC:v:s=4en	!	!	!
4GG/	6\	4G/	.	.	.	.	4e-\	.	.	.
!	!	!	!	!	!	!	!LO:LB:g=original	!	!	!
=64	=64	=64	=64	=64	=64	=64	=64	=64	=64	=64
2FF/	.	2F/	.	4ff\	1bb-	.	2f\	-men	4ff\	.
.	.	.	.	4gg-X\	.	.	.	.	4gg-X\	.
!	!	!LO:TX:a:t=1	!	!	!	!	!	!	!	!
2r	.	2r	.	4ff\	.	.	2r	.	4ff\	.
.	.	.	.	4ee-\	.	.	.	.	4ee-\	.
!	!	!LO:LB:g=original	!	!	!	!	!	!	!	!
=65-	=65	=65	=65	=65	=65	=65	=65	=65	=65	=65
!	!	!LO:TX:a:t=1	!	!LO:SIC:v:s=4dd-	!	!	!	!	!	!
1r	.	1r	.	4dd\	1bb-	.	1r	.	4dd-X\	.
.	.	.	.	4cc\	.	.	.	.	4cc\	.
.	.	.	.	4b-\	.	.	.	.	4b-\	.
!	!	!	!	!	!	!	!	!	!LO:SIC:v:s=4an	!
.	.	.	.	4an\	.	.	.	.	4a-X\	.
=66	=66	=66	=66	=66	=66	=66	=66	=66	=66	=66
!	!	!	!	!	!LO:TX:a:t=P:problem=takty 64-65 zapisane repetycją	!	!	!	!	!
4BB-/	-	4B-/	.	2.b-\	1bb-yy	.	1b-	A-	2.b-\	.
4B-\	.	4b-\	.	.	.	.	.	.	.	.
4A-\	.	4a-X\	.	.	.	.	.	.	.	.
4G-X\	6	4g-X\	.	4ee-\	.	.	.	.	4ee-\	.
=67	=67	=67	=67	=67	=67	=67	=67	=67	=67	=67
4F\	-6	4f\	.	4dd-X\	1bb-yy	.	1b-	.	4dd-X\	.
4E-\	6	4e-\	.	4cc\	.	.	.	.	4cc\	.
!LO:SIC:v:s=4D-	!	!	!	!	!	!	!	!	!	!
4D\	n	4d-X\	.	4b-\	.	.	.	.	4b-\	.
4C\	6	4c\	.	4an\	.	.	.	.	4an\	.
=68	=68	=68	=68	=68	=68	=68	=68	=68	=68	=68
4BB-/	.	4B-/	.	2.b-\	4bb-\	.	1b-	.	2.b-\	.
4B-\	.	4b-\	.	.	4ccc\	.	.	.	.	.
4A-\	.	4a-\	.	.	4ddd-X\	.	.	.	.	.
!	!	!LO:SIC:v:s=4g-	!	!	!	!	!	!	!	!
4G-X\	.	4g\	.	4ee-\	4ccc\	.	.	.	4ee-\	.
=69	=69	=69	=69	=69	=69	=69	=69	=69	=69	=69
4F\	-6	4f\	.	4dd-X\	4bb-\	.	1b-	.	4dd-X\	.
4E-\	.	4e-\	.	4cc\	4aa-X\	.	.	.	4cc\	.
!	!	!LO:SIC:v:s=4d-	!	!	!	!	!	!	!	!
4D-X\	n6	4d-X\	.	4b-\	4gg\	.	.	.	4b-\	.
4C\	.	4c\	.	4an\	4ff\	.	.	.	4an\	.
!	!	!	!	!LO:LB:g=original	!	!	!	!	!	!
=70	=70	=70	=70	=70	=70	=70	=70	=70	=70	=70
2BB-/	6	2B-/	.	2b-\	2.een\	.	4b-\	.	2b-\	-men
.	.	.	.	.	.	.	4cc\	.	.	.
2r	.	2r	.	2r	.	.	4dd-X\	.	2r	.
.	.	.	.	.	4ccc\	.	4cc\	.	.	.
!LO:LB:g=original	!	!	!	!	!	!	!	!	!	!
=71	=71	=71	=71	=71	=71	=71	=71	=71	=71	=71
!LO:TX:a:t=1	!	!LO:TX:a:t=1	!	!LO:TX:a:t=1	!	!	!	!	!	!
1r	.	1r	.	1r	4bb-\	.	4b-\	.	1r	.
.	.	.	.	.	4aa-\	.	4a-\	.	.	.
.	.	.	.	.	4gg\	.	4g\	.	.	.
.	.	.	.	.	4ff\	.	4f\	.	.	.
=72	=72	=72	=72	=72	=72	=72	=72	=72	=72	=72
4C/	n	4c\	.	1cc	2.een\	.	2.en\	.	[1cc	A-
4c\	.	4cc\	.	.	.	.	.	.	.	.
4B-\	.	4b-\	.	.	.	.	.	.	.	.
4A-\	.	4a-\	.	.	4ccc\	.	4cc\	.	.	.
=73	=73	=73	=73	=73	=73	=73	=73	=73	=73	=73
4G\	.	4g\	.	1cc	4bb-\	.	4b-\	.	1cc_	.
4F\	.	4f\	.	.	4aa-\	.	4a-\	.	.	.
!LO:SIC:v:s=4En	!	!	!	!	!	!	!	!	!	!
4E-\	.	4en\	.	.	4gg\	.	4g\	.	.	.
4D\	.	4d\	.	.	4ff\	.	4f\	.	.	.
=74	=74	=74	=74	=74	=74	=74	=74	=74	=74	=74
4C/	n	4c\	.	1cc	2.een\	.	2.en\	.	1cc_	.
4c\	.	4cc\	.	.	.	.	.	.	.	.
4B-\	.	4b-\	.	.	.	.	.	.	.	.
4A-\	.	4a-\	.	.	4ccc\	.	4cc\	.	.	.
=75	=75	=75	=75	=75	=75	=75	=75	=75	=75	=75
!LO:SIC:v:s=4G	!	!	!	!	!	!	!	!	!	!
4F\	.	4g\	.	1cc	4bb-\	.	4b-\	.	1cc_	.
!LO:SIC:v:s=4F	!	!	!	!	!	!	!	!	!	!
4E-\	.	4f\	.	.	4aa-\	.	4a-\	.	.	.
!LO:SIC:v:s=4En	!	!	!	!	!	!	!	!	!	!
4D\	.	4en\	.	.	4gg\	.	4g\	.	.	.
!LO:SIC:v:s=4D	!	!	!	!	!	!	!	!	!	!
4C\	.	4d\	.	.	4ff\	.	4f\	.	.	.
!	!	!	!	!	!	!	!	!	!LO:LB:g=original	!
=76	=76	=76	=76	=76	=76	=76	=76	=76	=76	=76
!LO:TX:b:i:t=Testo Solo:dur=6w:ext=cd:problem=text with extention lines	!	!	!	!	!	!LO:DY:b:t=p&colon;	!	!LO:TX:a:t=P:problem=brak zakończenia ligatury	!	!
1C	.	1c	.	2c/	2een\	p	2en\	.	1cc]	.
.	.	.	.	2cc\	2cc\	.	2cc\	.	.	.
!	!	!	!	!	!	!	!LO:LB:g=original	!	!	!
=77	=77	=77	=77	=77	=77	=77	=77	=77	=77	=77
1C	.	1c	.	2cc\	2dd-X\	.	2cc\	.	1dd-X	.
.	.	.	.	2b-\	4bb-\	.	2b-\	.	.	.
.	.	.	.	.	4dd-\	.	.	.	.	.
!	!	!LO:LB:g=original	!	!	!LO:LB:g=original	!	!	!	!	!
=78	=78	=78	=78	=78	=78	=78	=78	=78	=78	=78
1C	.	1c	.	2b-/	2cc\	.	2b-\	.	1cc	.
.	.	.	.	2a-/	4aa-\	.	2a-\	.	.	.
.	.	.	.	.	4cc\	.	.	.	.	.
=79	=79	=79	=79	=79	=79	=79	=79	=79	=79	=79
1C	.	1c	.	2a-/	2b-\	.	2a-\	.	1b-	.
.	.	.	.	2g/	4gg\	.	2g\	.	.	.
.	.	.	.	.	4b-\	.	.	.	.	.
=80	=80	=80	=80	=80	=80	=80	=80	=80	=80	=80
1C	.	1c	.	2g/	2a-\	.	2g\	.	2a-\	.
.	.	.	.	2f/	4ff\	.	2f\	.	4b-\	.
.	.	.	.	.	4a-\	.	.	.	4a-\	.
=81	=81	=81	=81	=81	=81	=81	=81	=81	=81	=81
1C	.	1c	.	2f/	1g	.	2f\	.	1g	.
.	.	.	.	2en/	.	.	2en\	.	.	.
=82	=82	=82	=82	=82	=82	=82	=82	=82	=82	=82
2FF/	.	2F/	.	4f/	4f/	.	2f\	-men	2f/	-men
.	.	.	.	4aa-\	4aa-\	.	.	.	.	.
2r	.	2r	.	4gg\	4gg\	.	2r	.	2r	.
.	.	.	.	4aa-\	4aa-\	.	.	.	.	.
=83	=83	=83	=83	=83	=83	=83	=83	=83	=83	=83
2r	.	2r	.	4ff\	4ff\	.	2r	.	2r	.
.	.	.	.	4aa-\	4aa-\	.	.	.	.	.
2An\	6 5	2An/	.	4cc\	4cc\	.	2f\	a-	2ee-X\	A-
.	.	.	.	4ee-\	4ee-X\	.	.	.	.	.
=84	=84	=84	=84	=84	=84	=84	=84	=84	=84	=84
2B-\	-	2B-/	.	4dd-X\	4dd-X\	.	2f\	-men	2dd-X\	-men
.	.	.	.	4bb-\	4bb-\	.	.	.	.	.
2r	.	2r	.	4aa-\	4aa-\	.	2r	.	2r	.
.	.	.	.	4bb-\	4bb-\	.	.	.	.	.
!	!	!	!	!LO:LB:g=original	!	!	!	!	!	!
=85	=85	=85	=85	=85	=85	=85	=85	=85	=85	=85
!LO:TX:a:t=P:problem=2 takty za dużo w a-vla	!	!	!	!LO:TX:a:t=P:problem=2 takty za dużo w a-vla	!LO:TX:a:t=P:problem=2 takty za dużo w a-vla	!	!LO:TX:a:t=P:problem=2 takty za dużo w a-vla	!	!LO:TX:a:t=P:problem=2 takty za dużo w a-vla	!
1ryy	.	2r	.	1ryy	1ryy	.	1ryy	.	1ryy	.
.	.	2An/	.	.	.	.	.	.	.	.
=86	=86	=86	=86	=86	=86	=86	=86	=86	=86	=86
1ryy	.	2B-/	.	1ryy	1ryy	.	1ryy	.	1ryy	.
.	.	2r	.	.	.	.	.	.	.	.
=87	=87	=87	=87	=87	=87	=87	=87	=87	=87	=87
2r	.	2r	.	4gg\	4gg\	.	2r	.	2r	.
.	.	.	.	4bb-\	4bb-\	.	.	.	.	.
2Bn\	6 5	2Bn/	.	4ddn\	4ddn\	.	2g\	a-	2ff\	a-
.	.	.	.	4ff\	4ff\	.	.	.	.	.
=88	=88	=88	=88	=88	=88	=88	=88	=88	=88	=88
2c\	.	2c/	.	4een\	4een\	.	2g\	-men	2een\	-men
.	.	.	.	4cc\	4cc\	.	.	.	.	.
2A-\	6	2a-\	.	4ff\	4ff\	.	2a-\	A-	2ff\	a-
.	.	.	.	4a-/	4a-/	.	.	.	.	.
!LO:LB:g=original	!	!	!	!	!	!	!	!	!	!
=89	=89	=89	=89	=89	=89	=89	=89	=89	=89	=89
2B-\	6 5	2b-\	.	4g/	4g/	.	2g\	-men	2ff\	.
.	.	.	.	4ff\	4ff\	.	.	.	.	.
2c\	4	2cc\	.	4g/	4g/	.	2g\	A-	2een\	.
.	n	.	.	4een\	4een\	.	.	.	.	.
=90	=90	=90	=90	=90	=90	=90	=90	=90	=90	=90
2F\	.	2f\	.	4ff\	4ff\	.	2f\	-men	2ff\	-men
.	.	.	.	4aa-\	4aa-\	.	.	.	.	.
2r	.	2r	.	4gg\	4gg\	.	2r	.	2r	.
.	.	.	.	4aa-\	4aa-\	.	.	.	.	.
=91	=91	=91	=91	=91	=91	=91	=91	=91	=91	=91
2r	.	2r	.	4ff\	4ff\	.	2r	.	2r	.
.	.	.	.	4aa-\	4aa-\	.	.	.	.	.
!LO:SIC:v:s=2An	!	!	!	!	!	!	!	!	!	!
2AA-/	6 5	2An/	.	4cc\	4cc\	.	2f\	a-	2ee-X\	A-
.	.	.	.	4ee-X\	4ee-X\	.	.	.	.	.
!	!	!LO:LB:g=original	!	!	!LO:LB:g=original	!	!	!	!	!
=92	=92	=92	=92	=92	=92	=92	=92	=92	=92	=92
2BB-/	-	2B-/	.	4dd-X\	4dd-X\	.	2f\	-men	2dd-X\	-men
.	.	.	.	4bb-\	4bb-\	.	.	.	.	.
2r	.	2r	.	4aa-\	4aa-\	.	2r	.	2r	.
.	.	.	.	4bb-\	4bb-\	.	.	.	.	.
!	!	!	!	!	!	!	!LO:LB:g=original	!	!LO:LB:g=original	!
=93	=93	=93	=93	=93	=93	=93	=93	=93	=93	=93
2r	.	2r	.	4gg\	4gg\	.	2r	.	2r	.
.	.	.	.	4bb-\	4bb-\	.	.	.	.	.
!LO:SIC:v:s=2BBn	!	!	!	!	!	!	!	!	!	!
2Cn/	6 5	2Bn/	.	4ddn\	4ddn\	.	2g\	a-	2ff\	A-
.	.	.	.	4ff\	4ff\	.	.	.	.	.
=94	=94	=94	=94	=94	=94	=94	=94	=94	=94	=94
2C/	n	2c\	.	4een\	4een\	.	2g\	-men	2een\	-men
.	.	.	.	4cc\	4cc\	.	.	.	.	.
2AA-/	6	2a-\	.	4ff\	4ff\	.	2a-\	A-	2ff\	a-
.	.	.	.	4a-/	4a-/	.	.	.	.	.
=95	=95	=95	=95	=95	=95	=95	=95	=95	=95	=95
2BB-/	6 5	2b-\	.	4g/	4g/	.	2g\	-men	2ff\	.
.	.	.	.	4ff\	4ff\	.	.	.	.	.
!	!	!	!	!	!LO:SIC:v:s=4g	!	!	!	!	!
2C/	4	2cc\	.	4g/	4f/	.	2g\	A-	2een\	.
.	n	.	.	4een\	4een\	.	.	.	.	.
=96	=96	=96	=96	=96	=96	=96	=96	=96	=96	=96
2F\	.	2f\	.	2f/	2f/	.	2f\	-men	2ff\	-men
2r	.	2r	.	2ff\	2aa-\	.	2r	.	2r	.
=97	=97	=97	=97	=97	=97	=97	=97	=97	=97	=97
2C/	n	2c\	.	2r	2r	.	2b-\	.	2een\	a-
.	7	.	.	.	.	.	.	.	.	.
2r	.	2r	.	2een\	2gg\	.	2r	.	2r	.
!	!	!	!	!LO:LB:g=original	!	!	!	!	!	!
=98	=98	=98	=98	=98	=98	=98	=98	=98	=98	=98
2F\	.	2f\	.	2r	2r	.	2a-\	.	2ff\	-men
2r	.	2r	.	2ff\	2aa-\	.	2r	.	2r	.
=99	=99	=99	=99	=99	=99	=99	=99	=99	=99	=99
2C/	n	2c\	.	2r	2r	.	2en\	A-	2cc\	A-
.	7	.	.	.	.	.	.	.	.	.
2r	.	2r	.	2en/	2g/	.	2r	.	2r	.
=100	=100	=100	=100	=100	=100	=100	=100	=100	=100	=100
2FF/	.	2F/	.	2ff 2cc 2f/	2ff 2cc 2f/	.	2f\	-men	2f/	-men
!	!	!LO:TX:b:i:t=Laus Deo	!	!LO:TX:b:i:t=Laus Deo G&colon; P&colon;	!LO:TX:b:t=Laus	!	!	!LO:TX:b:t=Ad. M. D. G.	!	!
2r	.	2r	.	2r	2r	.	2r	.	2r	.
==	==	==	==	==	==	==	==	==	==	==
*-	*-	*-	*-	*-	*-	*-	*-	*-	*-	*-
!!!system-decoration: [g1][g2]s6
!!!ENC: Marta Lawrence
!!!END: 2020-11-30
!!!ENC: Andrzej Borzym
!!!END: 2020-06-10
